icons/RabbitMQ-Dark.svg

<svg width="256" height="256" viewBox="0 0 256 256" fill="none" xmlns="http://www.w3.org/2000/svg">
<rect width="256" height="256" rx="60" fill="#242938"/>
<path d="M196.813 112.43H146.955C145.753 112.43 144.601 111.953 143.751 111.103C142.901 110.254 142.423 109.102 142.423 107.901V55.9657C142.423 52.1197 139.303 49 135.457 49H117.659C113.81 49 110.692 52.1197 110.692 55.9657V107.587C110.692 110.265 108.526 112.442 105.846 112.453L89.5074 112.531C86.8051 112.546 84.6096 110.354 84.6148 107.656L84.7162 55.9774C84.725 52.1256 81.6037 49 77.75 49H59.9668C56.1178 49 53 52.1197 53 55.9657V201.392C53 204.808 55.7691 207.576 59.1846 207.576H196.813C200.231 207.576 203 204.808 203 201.392V118.615C203 115.198 200.231 112.43 196.813 112.43ZM173.432 167.032C173.432 171.509 169.801 175.14 165.321 175.14H151.256C146.776 175.14 143.144 171.509 143.144 167.032V152.974C143.144 148.496 146.776 144.866 151.256 144.866H165.321C169.801 144.866 173.432 148.496 173.432 152.974V167.032Z" fill="#FF6600"/>
</svg>

<svg xmlns="http://www.w3.org/2000/svg" width="256" height="256" fill="none" viewBox="0 0 256 256"><rect width="256" height="256" fill="#242938" rx="60"/><path fill="#F60" d="M196.81 112.43h-49.85a4.53 4.53 0 0 1-4.54-4.53V55.97a6.97 6.97 0 0 0-6.96-6.97h-17.8a6.97 6.97 0 0 0-6.97 6.97v51.62a4.87 4.87 0 0 1-4.84 4.86l-16.34.08a4.87 4.87 0 0 1-4.9-4.87l.1-51.68A6.96 6.96 0 0 0 77.76 49H59.97A6.97 6.97 0 0 0 53 55.97v145.42a6.2 6.2 0 0 0 6.18 6.19h137.63a6.2 6.2 0 0 0 6.19-6.19v-82.77a6.2 6.2 0 0 0-6.19-6.19m-23.38 54.6a8.1 8.1 0 0 1-8.1 8.11h-14.07a8.1 8.1 0 0 1-8.12-8.1v-14.07c0-4.47 3.64-8.1 8.12-8.1h14.06a8.1 8.1 0 0 1 8.11 8.1z"/></svg>
